assets/Printer/Flat/printer_flat.svg

<svg width="32" height="32" viewBox="0 0 32 32" fill="none" xmlns="http://www.w3.org/2000/svg">
<path d="M10.0179 14H21.9821C23.0986 14 24 13.0497 24 11.8726V6.12743C24 4.95032 23.0986 4 21.9821 4H10.0179C8.90141 4 8 4.95032 8 6.12743V11.8618C8 13.0497 8.90141 14 10.0179 14Z" fill="#433B6B"/>
<path d="M26 9H6L5 17L6 25H26L27 17L26 9Z" fill="#635994"/>
<path d="M23.0093 20H9.00116C7.89526 20 7 20.8854 7 21.9792V25H24.9999V21.9792C25.0104 20.8854 24.1152 20 23.0093 20Z" fill="#1C1C1C"/>
<path d="M21.3991 30H10.6111C9.72396 30 9 29.3039 9 28.451L9 20H23V28.451C23 29.3039 22.2862 30 21.3991 30Z" fill="#433B6B"/>
<path d="M20.5053 2H11.4947C10.6726 2 10 2.588 10 3.30667V9H22V3.30667C22 2.588 21.3274 2 20.5053 2ZM4.36712 9H6V25H4.36712C3.06301 25 2 24.0032 2 22.7803V11.2197C2 9.98651 3.06301 9 4.36712 9ZM27.6329 9H26V25H27.6329C28.937 25 30 24.0032 30 22.7803V11.2197C30 9.98651 28.9479 9 27.6329 9ZM11.4947 28H20.5053C21.3274 28 22 27.3769 22 26.603V20H10V26.593C10 27.3668 10.6726 28 11.4947 28Z" fill="#D3D3D3"/>
<path d="M28 17C28.5523 17 29 16.5523 29 16C29 15.4477 28.5523 15 28 15C27.4477 15 27 15.4477 27 16C27 16.5523 27.4477 17 28 17ZM12 21C11.7239 21 11.5 21.2239 11.5 21.5C11.5 21.7761 11.7239 22 12 22H20C20.2761 22 20.5 21.7761 20.5 21.5C20.5 21.2239 20.2761 21 20 21H12ZM11.5 23.5C11.5 23.2239 11.7239 23 12 23H20C20.2761 23 20.5 23.2239 20.5 23.5C20.5 23.7761 20.2761 24 20 24H12C11.7239 24 11.5 23.7761 11.5 23.5ZM11.5 25.5C11.5 25.2239 11.7239 25 12 25H20C20.2761 25 20.5 25.2239 20.5 25.5C20.5 25.7761 20.2761 26 20 26H12C11.7239 26 11.5 25.7761 11.5 25.5ZM29 19C29 19.5523 28.5523 20 28 20C27.4477 20 27 19.5523 27 19C27 18.4477 27.4477 18 28 18C28.5523 18 29 18.4477 29 19Z" fill="#9B9B9B"/>
<path d="M19 16H14C13.4455 16 13 16.4455 13 17C13 17.5545 13.4455 18 14 18H19C19.5545 18 20 17.5545 20 17C20 16.4455 19.5545 16 19 16Z" fill="#1C1C1C"/>
<path d="M28 23C28.5523 23 29 22.5523 29 22C29 21.4477 28.5523 21 28 21C27.4477 21 27 21.4477 27 22C27 22.5523 27.4477 23 28 23Z" fill="#F70A8D"/>
</svg>

<svg xmlns="http://www.w3.org/2000/svg" width="32" height="32" fill="none"><path fill="#433B6B" d="M10.018 14h11.964C23.1 14 24 13.05 24 11.873V6.127C24 4.95 23.099 4 21.982 4H10.018C8.9 4 8 4.95 8 6.127v5.735C8 13.05 8.901 14 10.018 14Z"/><path fill="#635994" d="M26 9H6l-1 8 1 8h20l1-8-1-8Z"/><path fill="#1C1C1C" d="M23.01 20H9A1.99 1.99 0 0 0 7 21.98V25h18v-3.02c.01-1.095-.885-1.98-1.99-1.98Z"/><path fill="#433B6B" d="M21.4 30H10.61C9.724 30 9 29.304 9 28.451V20h14v8.451c0 .853-.714 1.549-1.6 1.549Z"/><path fill="#D3D3D3" d="M20.505 2h-9.01C10.673 2 10 2.588 10 3.307V9h12V3.307C22 2.588 21.327 2 20.505 2ZM4.367 9H6v16H4.367C3.063 25 2 24.003 2 22.78V11.22C2 9.987 3.063 9 4.367 9Zm23.266 0H26v16h1.633C28.937 25 30 24.003 30 22.78V11.22C30 9.987 28.948 9 27.633 9ZM11.495 28h9.01c.822 0 1.495-.623 1.495-1.397V20H10v6.593c0 .774.673 1.407 1.495 1.407Z"/><path fill="#9B9B9B" d="M28 17a1 1 0 1 0 0-2 1 1 0 0 0 0 2Zm-16 4a.5.5 0 0 0 0 1h8a.5.5 0 0 0 0-1h-8Zm-.5 2.5a.5.5 0 0 1 .5-.5h8a.5.5 0 0 1 0 1h-8a.5.5 0 0 1-.5-.5Zm0 2a.5.5 0 0 1 .5-.5h8a.5.5 0 0 1 0 1h-8a.5.5 0 0 1-.5-.5ZM29 19a1 1 0 1 1-2 0 1 1 0 0 1 2 0Z"/><path fill="#1C1C1C" d="M19 16h-5c-.555 0-1 .445-1 1 0 .555.445 1 1 1h5c.555 0 1-.445 1-1 0-.555-.445-1-1-1Z"/><path fill="#F70A8D" d="M28 23a1 1 0 1 0 0-2 1 1 0 0 0 0 2Z"/></svg>
